configs/network-logos/stability.svg

<svg width="114" height="20" viewBox="0 0 114 20" fill="none" xmlns="http://www.w3.org/2000/svg">
<mask id="mask0_10910_19640" style="mask-type:luminance" maskUnits="userSpaceOnUse" x="0" y="0" width="114" height="20">
<path d="M113.953 0H0V20H113.953V0Z" fill="white"/>
</mask>
<g mask="url(#mask0_10910_19640)">
<path d="M26.302 14.7637C27.4357 14.7637 28.2202 14.5931 28.6546 14.2513C29.0889 13.9093 29.3058 13.4092 29.3058 12.7486C29.3058 12.2065 29.14 11.7793 28.8077 11.4671C28.4755 11.1548 27.9663 10.9518 27.2789 10.8571L24.4919 10.4682C22.4169 10.1856 21.3793 9.13107 21.3793 7.30461C21.3793 6.26814 21.7775 5.42828 22.5737 4.78572C23.37 4.1439 24.54 3.82227 26.0844 3.82227C27.6289 3.82227 28.8988 4.16703 29.7128 4.85656C30.5269 5.54609 30.9768 6.45609 31.0611 7.58721H29.2518C29.1548 6.84493 28.8477 6.26744 28.3289 5.8547C27.8102 5.44274 27.0561 5.236 26.0667 5.236C25.0773 5.236 24.4223 5.416 23.9583 5.77521C23.4936 6.13442 23.2612 6.62665 23.2612 7.25112C23.2612 7.69926 23.3937 8.06716 23.6594 8.35554C23.9243 8.64465 24.3291 8.83042 24.8723 8.91209L27.822 9.33633C28.9195 9.48958 29.755 9.82279 30.3285 10.3352C30.9013 10.8477 31.1884 11.5755 31.1884 12.518C31.1884 14.9574 29.5596 16.1767 26.302 16.1767C24.4682 16.1767 23.1288 15.7792 22.2844 14.9834C21.44 14.1876 21.0175 13.1779 21.0175 11.9521H22.8269C22.8868 13.8255 24.0456 14.7622 26.3013 14.7622L26.302 14.7637Z" fill="black"/>
<path d="M36.0028 5.60824H31.8224V4.14099H42.0296V5.60824H37.8669V15.8955H36.0028V5.60824Z" fill="black"/>
<path d="M50.88 15.8948L49.8126 13.102H43.9854L42.9175 15.8948H41.0356L45.5054 4.14026H48.3102L52.78 15.8948H50.88ZM49.2516 11.6347L46.8991 5.43041L44.5463 11.6347H49.2516Z" fill="black"/>
<path d="M54.226 4.14099H60.3608C61.5553 4.14099 62.4357 4.40625 63.0027 4.93675C63.5697 5.46731 63.8529 6.16261 63.8529 7.0227C63.8529 7.82428 63.6236 8.46321 63.1655 8.94024C62.7069 9.41726 62.146 9.70926 61.4827 9.81554C62.2306 9.92177 62.8399 10.2195 63.3106 10.7081C63.7813 11.1975 64.0167 11.8661 64.0167 12.7146C64.0167 13.6925 63.6939 14.4673 63.0487 15.039C62.4032 15.6107 61.465 15.8962 60.2343 15.8962H54.226V4.14099ZM59.6911 9.14335C60.4511 9.14335 61.0092 8.99591 61.365 8.70173C61.7208 8.40754 61.8985 7.95363 61.8985 7.34075C61.8985 6.72782 61.7534 6.30066 61.4641 6.02382C61.1748 5.74698 60.6618 5.60824 59.9255 5.60824H56.0892V9.14335H59.6911ZM60.0166 14.4283C60.7162 14.4283 61.232 14.249 61.5641 13.8891C61.8957 13.5299 62.0622 13.0673 62.0622 12.5014C62.0622 11.1577 61.2715 10.4863 59.6911 10.4863H56.0892V14.4276H60.0166V14.4283Z" fill="black"/>
<path d="M65.8265 14.4283H68.2879V5.60824H65.8265V4.14099H72.6135V5.60824H70.1521V14.4283H72.6135V15.8955H65.8265V14.4283Z" fill="black"/>
<path d="M74.8763 4.14099H76.7405V14.4283H82.8391V15.8955H74.8763V4.14099Z" fill="black"/>
<path d="M84.1061 14.4283H86.5675V5.60824H84.1061V4.14099H90.8931V5.60824H88.4317V14.4283H90.8931V15.8955H84.1061V14.4283Z" fill="black"/>
<path d="M96.339 5.60824H92.1586V4.14099H102.366V5.60824H98.2028V15.8955H96.339V5.60824Z" fill="black"/>
<path d="M105.05 4.14099L107.493 8.68363L108.434 10.4161C108.76 9.88563 109.086 9.30884 109.411 8.68363L111.872 4.14099H113.953L109.375 12.007V15.8955H107.511V12.007L102.932 4.14099H105.05H105.05Z" fill="black"/>
<path d="M0 15.5525L7.94865 11.0901L15.8973 15.564L7.94865 19.9998L0 15.5525Z" fill="#0A0A0A"/>
<path d="M0 4.46228L7.94865 8.89868V17.7354L0 13.3828V4.46228Z" fill="#3E7CB1"/>
<path d="M15.8976 4.474L7.94885 8.9097V17.7471L15.8976 13.3945V4.474Z" fill="#30C5FF"/>
<path d="M0 4.46243L7.94865 0L15.8973 4.474L7.94865 8.90967L0 4.46243Z" fill="#41EEF9"/>
</g>
</svg>

<svg xmlns="http://www.w3.org/2000/svg" fill="none" viewBox="0 0 114 20">
  <mask id="stability_svg__a" width="114" height="20" x="0" y="0" maskUnits="userSpaceOnUse" style="mask-type:luminance">
    <path fill="#fff" d="M113.953 0H0v20h113.953V0Z"/>
  </mask>
  <g mask="url(#stability_svg__a)">
    <path fill="#000" d="M26.302 14.764c1.134 0 1.918-.17 2.353-.513.434-.342.65-.842.65-1.502 0-.543-.165-.97-.497-1.282-.332-.312-.842-.515-1.53-.61l-2.786-.389c-2.075-.282-3.113-1.337-3.113-3.163 0-1.037.398-1.877 1.195-2.52.796-.641 1.966-.963 3.51-.963 1.545 0 2.815.345 3.629 1.035.814.69 1.264 1.6 1.348 2.73h-1.81c-.096-.742-.403-1.32-.922-1.732-.519-.412-1.273-.619-2.262-.619-.99 0-1.645.18-2.109.54-.464.358-.697.85-.697 1.475 0 .448.133.816.398 1.105.265.289.67.474 1.213.556l2.95.424c1.098.154 1.933.487 2.506 1 .573.512.86 1.24.86 2.182 0 2.44-1.628 3.659-4.886 3.659-1.834 0-3.173-.398-4.018-1.194-.844-.795-1.267-1.805-1.267-3.03h1.81c.06 1.873 1.219 2.81 3.474 2.81h.001Zm9.701-9.156h-4.18V4.141H42.03v1.467h-4.163v10.288h-1.864V5.607ZM50.88 15.895l-1.067-2.793h-5.828l-1.068 2.793h-1.881l4.47-11.755h2.804l4.47 11.755h-1.9Zm-1.628-4.26L46.899 5.43l-2.353 6.205h4.706Zm4.974-7.494h6.135c1.194 0 2.075.265 2.642.796.567.53.85 1.226.85 2.086 0 .801-.23 1.44-.688 1.917a2.912 2.912 0 0 1-1.682.876c.748.106 1.357.403 1.828.892.47.49.706 1.158.706 2.007 0 .978-.323 1.752-.968 2.324-.646.572-1.584.857-2.815.857h-6.008V4.141Zm5.465 5.002c.76 0 1.318-.147 1.674-.441.356-.294.533-.748.533-1.361s-.145-1.04-.434-1.317c-.29-.277-.802-.416-1.538-.416h-3.837v3.535h3.602Zm.326 5.285c.7 0 1.215-.179 1.547-.539.332-.36.498-.822.498-1.388 0-1.343-.79-2.015-2.37-2.015h-3.603v3.942h3.928Zm5.809 0h2.462v-8.82h-2.462V4.141h6.788v1.467h-2.462v8.82h2.462v1.467h-6.788v-1.467Zm9.05-10.287h1.864v10.287h6.1v1.467h-7.964V4.142Zm9.23 10.287h2.462v-8.82h-2.462V4.141h6.787v1.467h-2.461v8.82h2.461v1.467h-6.787v-1.467Zm12.233-8.82h-4.18V4.141h10.207v1.467h-4.163v10.288h-1.864V5.607Zm8.711-1.467 2.443 4.543.941 1.732c.326-.53.652-1.107.977-1.732l2.461-4.543h2.081l-4.578 7.866v3.889h-1.864v-3.889l-4.579-7.866h2.118Z"/>
    <path fill="#0A0A0A" d="m0 15.553 7.949-4.463 7.948 4.474L7.95 20 0 15.553Z"/>
    <path fill="#3E7CB1" d="M0 4.462 7.949 8.9v8.836L0 13.383v-8.92Z"/>
    <path fill="#30C5FF" d="M15.898 4.474 7.948 8.91v8.837l7.95-4.352V4.474Z"/>
    <path fill="#41EEF9" d="M0 4.462 7.949 0l7.948 4.474L7.95 8.91 0 4.462Z"/>
  </g>
</svg>
